X:1
T:Hazelwood, 87.87 D
T:Hazelwood, 87.87 D
T:Peter Philip Bilhorn,1895
T:Public Domain Courtesy of the Cyber Hymnal™
C:Peter Philip Bilhorn,1895
Z:Public Domain
Z:Courtesy of the Cyber Hymnal™
%%score ( 1 2 ) ( 3 4 )
L:1/8
Q:1/4=100
M:3/4
K:Ab
V:1 treble 
V:2 treble 
V:3 bass 
V:4 bass 
V:1
 [CE][CA] | [Ec]3 [CA] [DF][DA] | [DF]2 [CE]2 [EA][Ac] | [Ae]3 [Ec] [EB][=DA] | [DB]4 [CE][CA] | %5
 [Ec]3 [CA] [DF][DA] | [DF]2 [CE]2 [EA][Ec] | [Ee]3 [Ec] [CA][DB] | [CA]4 [_GA][GA] | %9
 [Fd]3 [Fd] [Fd][Fd] | [Fd]2 [Ec]2 [Ec][Ec] | [=Dc]3 [DB] [DF][Dc] | B4 [CE][CA] | %13
 [Ec]3 [CA] [DF][DA] | [DF]2 [CE]2 [EA][Ac] | [Ge]3 [Ec] [CA][DB] | [CA]4 |] %17
V:2
 x2 | x6 | x6 | x6 | x6 | x6 | x6 | x6 | x6 | x6 | x6 | x6 | (E2 D2) x2 | x6 | x6 | x6 | x4 |] %17
V:3
 [A,,A,][A,,A,] | [A,,A,]3 [A,,A,] [D,A,][F,A,] | A,2 A,2 [A,C][A,E] | [A,C]3 A, [G,B,][F,B,] | %4
 [E,G,]4 [A,,A,][A,,A,] | [A,,A,]3 [A,,A,] [D,A,][F,A,] | A,2 A,2 [A,C]A, | %7
 [E,C]3 [E,A,] [E,A,][E,G,] | [A,,A,]4 A,A, | [D,A,]3 [D,A,] [D,A,][D,A,] | %10
 [A,,A,]2 [A,,A,]2 [A,,A,][A,,A,] | [B,,F,]3 [B,,F,] [B,,B,][B,,A,] | [E,G,]4 [A,,A,][A,,A,] | %13
 [A,,A,]3 [A,,A,] [D,A,][F,A,] | A,2 A,2 [A,C]A, | [E,B,]3 [E,A,] [E,A,][E,G,] | [A,,A,]4 |] %17
V:4
 x2 | x6 | A,2 A,2 x2 | x3 A, x2 | x6 | x6 | A,2 A,2 A, x | x6 | x4 A,A, | x6 | x6 | x6 | x6 | x6 | %14
 A,2 A,2 A, x | x6 | x4 |] %17

